X:1
T:Title
%%score { ( 1 3 ) | ( 2 4 ) }
L:1/8
M:4/2
K:G
V:1 treble nm="Grand Piano"
V:3 treble 
V:2 bass 
V:4 bass 
V:1
 z8 z4 z2[Q:1/4=124] D2 | [B,D]4 [G,DE]2 [A,DF]2 [DA]4 [DG]2 [^CG]2 | %2
[M:7/4] [Dd]4 [B,EB]2 [CFA]2 [B,G]6 |[M:1/4] [B,=FG]2 | %4
[M:8/4] [CEG]4 [Ee]2 [Ed]2 [Ed]4 [Ec]2 [EB]2 |[M:7/4] A2 z2 [EG]2 [EA]2 B6 |[M:1/4] [A,^DF]2 | %7
[M:8/4] G4 z4 A4[K:bass] z4[K:treble] |[M:7/4] B4 z2 z2 z2 z4 |[M:1/4] G2 | %10
[M:8/4] [Ee]4 [Ec]2 [DB]2 [CA]4 [CD]2 [CE]2 |[M:7/4] [^CB]4 [=CG]2 [CA]2 [B,G]6 |[M:1/4] D2 | %13
[M:8/4] [B,D]4 [G,DE]2 [A,DF]2 [DA]4 [DG]2 [^CG]2 |[M:7/4] [Dd]4 [B,EB]2 [CFA]2 [B,G]6 | %15
[M:1/4] [B,=FG]2 |[M:8/4] [CEG]4 [Ee]2 [Ed]2 [Ed]4 [Ec]2 [EB]2 |[M:7/4] A2 z2 z4 B6 | %18
[M:1/4] [A,^DF]2 |[M:8/4] G4 z4 A4[K:bass] z4[K:treble] |[M:7/4] B4 z2 z2 z2 z4 |[M:1/4] G2 | %22
[M:8/4] g2 e2 [=Fd]2 [B,FG]2 .[CEG]4 [A,EA]2 [^D_B]2 |[M:7/4] B2 D2 E2 F2 [CG]6 |] %24
V:2
 z8 z4 z2 D,2 | G,,4 C,2 C,2 [B,,F,]4 [B,,G,]2 [E,A,]2 |[M:7/4] [D,B,]4 D,2 D,2 E,6 |[M:1/4] D,2 | %4
[M:8/4] C,4 [C,G,]2 [E,^G,]2 [A,,G,]4 [A,,A,]2 [B,,G,]2 | %5
[M:7/4] z2[K:treble] B2[K:bass] [C,E,]2 [C,E,]2 z4 ^D2 |[M:1/4] B,,2 | %7
[M:8/4] z2 B,2 A,,2 A,,2 .[D,G,C]4 [D,F,C]2 [D,F,C]2 | %8
[M:7/4] [G,,G,]4[K:treble] [G,A,G]2 [G,CF]2 [G,B,=F]6 |[M:1/4] [G,B,=F]2 | %10
[M:8/4][K:bass] [C,C]4 [C,G,]2 [E,^G,]2 [A,,A,]4 [A,,A,]2 [A,,=G,]2 | %11
[M:7/4] [A,,G,]4 [D,E,]2 [D,F,]2 [G,,D,G,]6 |[M:1/4] D,2 | %13
[M:8/4] G,,4 C,2 C,2 [B,,F,]4 [B,,G,]2 [E,A,]2 |[M:7/4] [D,B,]4 D,2 D,2 E,6 |[M:1/4] D,2 | %16
[M:8/4] C,4 [C,G,]2 [E,^G,]2 [A,,G,]4 [A,,A,]2 [B,,G,]2 | %17
[M:7/4] z2[K:treble] B2[K:bass] [C,E,]2 [C,E,]2 z4 ^D2 |[M:1/4] B,,2 | %19
[M:8/4] z2 B,2 A,,2 A,,2 .[D,G,C]4 [D,F,C]2 [D,F,C]2 | %20
[M:7/4] [G,,G,]4[K:treble] [G,A,G]2 [G,CF]2 [G,B,=F]6 |[M:1/4] [G,B,=F]2 | %22
[M:8/4][K:bass] C2 G,2 [C,A,]2 C,2 z2 B,2 C,2 [^C,G,]2 | %23
[M:7/4] [G,D]2 B,2 [D,_B,^C]2 [D,A,=C]2 [G,,G,]6 |] %24
V:3
 x16 | x16 |[M:7/4] x14 |[M:1/4] x2 |[M:8/4] x16 |[M:7/4] [A,E]4 z4 E4 z2 |[M:1/4] x2 | %7
[M:8/4] [G,E]2 D2 [A,^CF]2 [G,CG]2 z2[K:bass] E,2 D2[K:treble] D2 |[M:7/4] B,2 D2 c2 A2 d6 | %9
[M:1/4] x2 |[M:8/4] x16 |[M:7/4] x14 |[M:1/4] x2 |[M:8/4] x16 |[M:7/4] x14 |[M:1/4] x2 | %16
[M:8/4] x16 |[M:7/4] [A,E]4 [EG]2 [EA]2 E4 z2 |[M:1/4] x2 | %19
[M:8/4] [G,E]2 D2 [A,^CF]2 [G,CG]2 z2[K:bass] E,2 D2[K:treble] D2 |[M:7/4] B,2 D2 c2 A2 d6 | %21
[M:1/4] x2 |[M:8/4] x16 |[M:7/4] x14 |] %24
V:4
 x16 | x16 |[M:7/4] x14 |[M:1/4] x2 |[M:8/4] x16 |[M:7/4] C,4[K:treble][K:bass] z4 [B,,F,]6 | %6
[M:1/4] x2 |[M:8/4] E,4 z4 z8 |[M:7/4] x4[K:treble] x10 |[M:1/4] x2 |[M:8/4][K:bass] x16 | %11
[M:7/4] x14 |[M:1/4] x2 |[M:8/4] x16 |[M:7/4] x14 |[M:1/4] x2 |[M:8/4] x16 | %17
[M:7/4] C,4[K:treble][K:bass] z4 [B,,F,]6 |[M:1/4] x2 |[M:8/4] E,4 z4 z8 | %20
[M:7/4] x4[K:treble] x10 |[M:1/4] x2 |[M:8/4][K:bass] [C,E]4 z4 C,4 z4 |[M:7/4] D,4 z2 z2 z2 z4 |] %24

